packages/dnb-eufemia/assets/icons/arrow_up_medium.svg

<svg width="24" height="24" viewBox="0 0 24 24" fill="none" xmlns="http://www.w3.org/2000/svg">
<path d="M3.96967 8.84467C3.67678 9.13756 3.67678 9.61244 3.96967 9.90533C4.26256 10.1982 4.73744 10.1982 5.03033 9.90533L3.96967 8.84467ZM12 1.875L12.5303 1.34467C12.2374 1.05178 11.7626 1.05178 11.4697 1.34467L12 1.875ZM18.9697 9.90533C19.2626 10.1982 19.7374 10.1982 20.0303 9.90533C20.3232 9.61244 20.3232 9.13756 20.0303 8.84467L18.9697 9.90533ZM11.25 22.125C11.25 22.5392 11.5858 22.875 12 22.875C12.4142 22.875 12.75 22.5392 12.75 22.125H11.25ZM5.03033 9.90533L12.5303 2.40533L11.4697 1.34467L3.96967 8.84467L5.03033 9.90533ZM11.4697 2.40533L18.9697 9.90533L20.0303 8.84467L12.5303 1.34467L11.4697 2.40533ZM12.75 22.125V1.875H11.25V22.125H12.75Z" fill="black"/>
</svg>

<svg width="24" height="24" viewBox="0 0 24 24" fill="none" xmlns="http://www.w3.org/2000/svg"><path d="M3.97 8.845a.75.75 0 0 0 1.06 1.06l-1.06-1.06ZM12 1.875l.53-.53a.75.75 0 0 0-1.06 0l.53.53Zm6.97 8.03a.75.75 0 1 0 1.06-1.06l-1.06 1.06Zm-7.72 12.22a.75.75 0 0 0 1.5 0h-1.5ZM5.03 9.905l7.5-7.5-1.06-1.06-7.5 7.5 1.06 1.06Zm6.44-7.5 7.5 7.5 1.06-1.06-7.5-7.5-1.06 1.06Zm1.28 19.72V1.875h-1.5v20.25h1.5Z" fill="#000"/></svg>
